src/assets/svg/icons/fa/nuevos/classic/light/bridge-suspension classic light.svg

<svg xmlns="http://www.w3.org/2000/svg" viewBox="0 0 640 512"><path d="M128 .0003C134.4 .0003 139.9 3.743 142.5 9.155L149.1 22.36C181.4 87.1 247.6 128 320 128C392.4 128 458.6 87.1 490.9 22.36L497.5 9.155C500.1 3.743 505.6 0 512 0C519.2 0 525.3 4.741 527.3 11.27C541.8 54.28 585.1 98.75 629.9 116.2C638.1 119.4 642.1 128.7 638.9 136.1C635.6 145.2 626.3 149.2 618.1 145.9C585.1 132.8 552.1 107.3 528 76.82V256H624C632.8 256 640 263.2 640 272C640 280.8 632.8 288 624 288H16C7.164 288 .0002 280.8 .0002 272C.0002 263.2 7.164 256 16 256H112V76.82C87.87 107.3 54.95 132.8 21.9 145.9C13.69 149.2 4.388 145.2 1.129 136.1C-2.131 128.7 1.885 119.4 10.1 116.2C54.01 98.75 98.23 54.28 112.7 11.27C114.7 4.742 120.8 .0003 128 .0003H128zM144 256H208V129.9C183.5 115.6 161.7 96.72 144 74.02V256zM240 256H304V159.4C281.8 157.8 260.3 152.1 240 145.2V256zM336 256H400V145.2C379.7 152.1 358.2 157.8 336 159.4V256zM432 256H496V74.02C478.3 96.72 456.5 115.6 432 129.9V256zM32 320C85.02 320 128 362.1 128 416V464C128 472.8 135.2 480 144 480H176C184.8 480 192 472.8 192 464V448C192 377.3 249.3 320 320 320C390.7 320 448 377.3 448 448V464C448 472.8 455.2 480 464 480H496C504.8 480 512 472.8 512 464V416C512 362.1 554.1 320 608 320H624C632.8 320 640 327.2 640 336C640 344.8 632.8 352 624 352H608C572.7 352 544 380.7 544 416V464C544 490.5 522.5 512 496 512H464C437.5 512 416 490.5 416 464V448C416 394.1 373 352 320 352C266.1 352 224 394.1 224 448V464C224 490.5 202.5 512 176 512H144C117.5 512 96 490.5 96 464V416C96 380.7 67.35 352 32 352H16C7.164 352 .0005 344.8 .0005 336C.0005 327.2 7.164 320 16 320H32z"/></svg>

<svg xmlns="http://www.w3.org/2000/svg" viewBox="0 0 640 512"><!--! Font Awesome Pro 6.4.0 by @fontawesome - https://fontawesome.com License - https://fontawesome.com/license (Commercial License) Copyright 2023 Fonticons, Inc. --><path d="M128 0c6.4 0 11.9 3.7 14.5 9.2l6.6 13.2C181.4 87.1 247.6 128 320 128s138.6-40.9 170.9-105.6l6.6-13.2C500.1 3.7 505.6 0 512 0c7.2 0 13.3 4.7 15.3 11.3c14.5 43 58.7 87.5 102.6 104.9c8.2 3.3 12.2 12.6 9 20.8s-12.6 12.2-20.8 9c-33-13.1-66-38.6-90.1-69.1V256h96c8.8 0 16 7.2 16 16s-7.2 16-16 16H16c-8.8 0-16-7.2-16-16s7.2-16 16-16h96V76.8c-24.1 30.5-57.1 56-90.1 69.1c-8.2 3.3-17.5-.8-20.8-9s.8-17.5 9-20.8C54 98.7 98.2 54.3 112.7 11.3C114.7 4.7 120.8 0 128 0zm16 256h64V129.9c-24.5-14.2-46.3-33.1-64-55.8V256zm96 0h64V159.4c-22.2-1.6-43.7-6.5-64-14.3V256zm96 0h64V145.2c-20.3 7.8-41.8 12.7-64 14.3V256zm96 0h64V74c-17.7 22.7-39.5 41.6-64 55.8V256zM16 320H32c53 0 96 43 96 96v48c0 8.8 7.2 16 16 16h32c8.8 0 16-7.2 16-16V448c0-70.7 57.3-128 128-128s128 57.3 128 128v16c0 8.8 7.2 16 16 16h32c8.8 0 16-7.2 16-16V416c0-53 43-96 96-96h16c8.8 0 16 7.2 16 16s-7.2 16-16 16H608c-35.3 0-64 28.7-64 64v48c0 26.5-21.5 48-48 48H464c-26.5 0-48-21.5-48-48V448c0-53-43-96-96-96s-96 43-96 96v16c0 26.5-21.5 48-48 48H144c-26.5 0-48-21.5-48-48V416c0-35.3-28.7-64-64-64H16c-8.8 0-16-7.2-16-16s7.2-16 16-16z"/></svg>
